epam-assets/icon-sources/18/media-skip_backward.svg

<svg xmlns="http://www.w3.org/2000/svg" width="18" height="18" fill="none" viewBox="0 0 18 18">
  <path fill="#6C6F80" d="M3.75 12.75v-7.5h-1.5v7.5h1.5Zm12-7.5v7.5L10.5 9l5.25-3.75Zm-6 7.5v-7.5L4.5 9l5.25 3.75Z"/>
</svg>

<svg width="18" height="18" viewBox="0 0 18 18" fill="none" xmlns="http://www.w3.org/2000/svg">
<g id="18/media-skip_backward">
<g id="icon">
<path d="M3.75 12.75V5.25H2.25V12.75H3.75Z" fill="#6C6F80"/>
<path d="M15.75 5.25V12.75L10.5 9L15.75 5.25Z" fill="#6C6F80"/>
<path d="M9.75 12.75V5.25L4.5 9L9.75 12.75Z" fill="#6C6F80"/>
</g>
</g>
</svg>
